images/3232696.svg

<?xml version="1.0" encoding="UTF-8"?>
<svg xmlns="http://www.w3.org/2000/svg" xmlns:xlink="http://www.w3.org/1999/xlink" width="300pt" height="300pt" viewBox="0 0 300 300" version="1.1">
<defs>
<g>
<symbol overflow="visible" id="glyph0-0">
<path style="stroke:none;" d="M 0.59375 2.125 L 0.59375 -8.46875 L 6.59375 -8.46875 L 6.59375 2.125 Z M 1.265625 1.453125 L 5.9375 1.453125 L 5.9375 -7.78125 L 1.265625 -7.78125 Z M 1.265625 1.453125 "/>
</symbol>
<symbol overflow="visible" id="glyph0-1">
<path style="stroke:none;" d="M 1.171875 -8.75 L 2.765625 -8.75 L 6.65625 -1.4375 L 6.65625 -8.75 L 7.796875 -8.75 L 7.796875 0 L 6.203125 0 L 2.328125 -7.3125 L 2.328125 0 L 1.171875 0 Z M 1.171875 -8.75 "/>
</symbol>
<symbol overflow="visible" id="glyph0-2">
<path style="stroke:none;" d="M 4.734375 -7.953125 C 3.867188 -7.953125 3.179688 -7.628906 2.671875 -6.984375 C 2.171875 -6.347656 1.921875 -5.472656 1.921875 -4.359375 C 1.921875 -3.265625 2.171875 -2.394531 2.671875 -1.75 C 3.179688 -1.113281 3.867188 -0.796875 4.734375 -0.796875 C 5.585938 -0.796875 6.265625 -1.113281 6.765625 -1.75 C 7.273438 -2.394531 7.53125 -3.265625 7.53125 -4.359375 C 7.53125 -5.472656 7.273438 -6.347656 6.765625 -6.984375 C 6.265625 -7.628906 5.585938 -7.953125 4.734375 -7.953125 Z M 4.734375 -8.90625 C 5.953125 -8.90625 6.925781 -8.492188 7.65625 -7.671875 C 8.394531 -6.847656 8.765625 -5.742188 8.765625 -4.359375 C 8.765625 -2.984375 8.394531 -1.882812 7.65625 -1.0625 C 6.925781 -0.238281 5.953125 0.171875 4.734375 0.171875 C 3.503906 0.171875 2.519531 -0.238281 1.78125 -1.0625 C 1.039062 -1.882812 0.671875 -2.984375 0.671875 -4.359375 C 0.671875 -5.742188 1.039062 -6.847656 1.78125 -7.671875 C 2.519531 -8.492188 3.503906 -8.90625 4.734375 -8.90625 Z M 4.734375 -8.90625 "/>
</symbol>
</g>
</defs>
<g id="surface42193">
<rect x="0" y="0" width="300" height="300" style="fill:rgb(100%,100%,100%);fill-opacity:1;stroke:none;"/>
<path style="fill:none;stroke-width:1.2;stroke-linecap:butt;stroke-linejoin:miter;stroke:rgb(0%,0%,0%);stroke-opacity:1;stroke-miterlimit:10;" d="M 243.078125 216.847656 L 264.75 197.242188 "/>
<path style="fill:none;stroke-width:1.2;stroke-linecap:butt;stroke-linejoin:miter;stroke:rgb(0%,0%,0%);stroke-opacity:1;stroke-miterlimit:10;" d="M 236.933594 188.273438 L 243.078125 216.847656 "/>
<path style="fill:none;stroke-width:1.2;stroke-linecap:butt;stroke-linejoin:miter;stroke:rgb(0%,0%,0%);stroke-opacity:1;stroke-miterlimit:10;" d="M 264.75 197.242188 L 236.933594 188.273438 "/>
<path style="fill:none;stroke-width:1.2;stroke-linecap:butt;stroke-linejoin:miter;stroke:rgb(0%,0%,0%);stroke-opacity:1;stroke-miterlimit:10;" d="M 236.933594 188.273438 L 227.128906 177.4375 "/>
<path style="fill:none;stroke-width:1.2;stroke-linecap:butt;stroke-linejoin:miter;stroke:rgb(0%,0%,100%);stroke-opacity:1;stroke-miterlimit:10;" d="M 227.128906 177.4375 L 217.328125 166.601562 "/>
<path style="fill:none;stroke-width:1.2;stroke-linecap:butt;stroke-linejoin:miter;stroke:rgb(0%,0%,100%);stroke-opacity:1;stroke-miterlimit:10;" d="M 217.328125 166.601562 L 221.808594 152.691406 "/>
<path style="fill:none;stroke-width:1.2;stroke-linecap:butt;stroke-linejoin:miter;stroke:rgb(0%,0%,0%);stroke-opacity:1;stroke-miterlimit:10;" d="M 221.808594 152.691406 L 226.292969 138.785156 "/>
<path style="fill:none;stroke-width:1.2;stroke-linecap:butt;stroke-linejoin:miter;stroke:rgb(0%,0%,0%);stroke-opacity:1;stroke-miterlimit:10;" d="M 188.753906 172.746094 L 203.039062 169.671875 "/>
<path style="fill:none;stroke-width:1.2;stroke-linecap:butt;stroke-linejoin:miter;stroke:rgb(0%,0%,100%);stroke-opacity:1;stroke-miterlimit:10;" d="M 203.039062 169.671875 L 217.328125 166.601562 "/>
<path style=" stroke:none;fill-rule:nonzero;fill:rgb(100%,100%,100%);fill-opacity:1;" d="M 213.328125 159.601562 L 222.328125 159.601562 L 222.328125 173.601562 L 213.328125 173.601562 Z M 213.328125 159.601562 "/>
<g style="fill:rgb(0%,0%,100%);fill-opacity:1;">
  <use xlink:href="#glyph0-1" x="213.328125" y="170.740234"/>
</g>
<path style="fill:none;stroke-width:1.2;stroke-linecap:butt;stroke-linejoin:miter;stroke:rgb(0%,0%,0%);stroke-opacity:1;stroke-miterlimit:10;" d="M 226.292969 138.785156 L 240.582031 135.714844 "/>
<path style="fill:none;stroke-width:1.2;stroke-linecap:butt;stroke-linejoin:miter;stroke:rgb(0%,0%,100%);stroke-opacity:1;stroke-miterlimit:10;" d="M 240.582031 135.714844 L 254.867188 132.640625 "/>
<path style="fill:none;stroke-width:1.2;stroke-linecap:butt;stroke-linejoin:miter;stroke:rgb(0%,0%,0%);stroke-opacity:1;stroke-miterlimit:10;" d="M 227.707031 131.449219 L 239.136719 128.992188 "/>
<path style="fill:none;stroke-width:1.2;stroke-linecap:butt;stroke-linejoin:miter;stroke:rgb(0%,0%,100%);stroke-opacity:1;stroke-miterlimit:10;" d="M 239.136719 128.992188 L 250.5625 126.535156 "/>
<path style="fill:none;stroke-width:1.2;stroke-linecap:butt;stroke-linejoin:miter;stroke:rgb(0%,0%,0%);stroke-opacity:1;stroke-miterlimit:10;" d="M 206.6875 117.113281 L 226.292969 138.785156 "/>
<path style="fill:none;stroke-width:1.2;stroke-linecap:butt;stroke-linejoin:miter;stroke:rgb(0%,0%,100%);stroke-opacity:1;stroke-miterlimit:10;" d="M 254.867188 132.640625 L 259.351562 118.734375 "/>
<path style="fill:none;stroke-width:1.2;stroke-linecap:butt;stroke-linejoin:miter;stroke:rgb(0%,0%,0%);stroke-opacity:1;stroke-miterlimit:10;" d="M 259.351562 118.734375 L 263.832031 104.824219 "/>
<path style=" stroke:none;fill-rule:nonzero;fill:rgb(100%,100%,100%);fill-opacity:1;" d="M 250.867188 125.640625 L 259.867188 125.640625 L 259.867188 139.640625 L 250.867188 139.640625 Z M 250.867188 125.640625 "/>
<g style="fill:rgb(0%,0%,100%);fill-opacity:1;">
  <use xlink:href="#glyph0-1" x="250.867188" y="136.779297"/>
</g>
<path style="fill:none;stroke-width:1.2;stroke-linecap:butt;stroke-linejoin:miter;stroke:rgb(0%,0%,0%);stroke-opacity:1;stroke-miterlimit:10;" d="M 263.832031 104.824219 L 254.03125 93.988281 "/>
<path style="fill:none;stroke-width:1.2;stroke-linecap:butt;stroke-linejoin:miter;stroke:rgb(0%,0%,100%);stroke-opacity:1;stroke-miterlimit:10;" d="M 254.03125 93.988281 L 244.226562 83.152344 "/>
<path style="fill:none;stroke-width:1.2;stroke-linecap:butt;stroke-linejoin:miter;stroke:rgb(0%,0%,0%);stroke-opacity:1;stroke-miterlimit:10;" d="M 256.773438 107.273438 L 248.929688 98.601562 "/>
<path style="fill:none;stroke-width:1.2;stroke-linecap:butt;stroke-linejoin:miter;stroke:rgb(0%,0%,100%);stroke-opacity:1;stroke-miterlimit:10;" d="M 248.929688 98.601562 L 241.085938 89.933594 "/>
<path style="fill:none;stroke-width:1.2;stroke-linecap:butt;stroke-linejoin:miter;stroke:rgb(0%,0%,100%);stroke-opacity:1;stroke-miterlimit:10;" d="M 244.226562 83.152344 L 229.941406 86.222656 "/>
<path style="fill:none;stroke-width:1.2;stroke-linecap:butt;stroke-linejoin:miter;stroke:rgb(0%,0%,0%);stroke-opacity:1;stroke-miterlimit:10;" d="M 229.941406 86.222656 L 215.652344 89.296875 "/>
<path style=" stroke:none;fill-rule:nonzero;fill:rgb(100%,100%,100%);fill-opacity:1;" d="M 240.226562 76.152344 L 249.226562 76.152344 L 249.226562 90.152344 L 240.226562 90.152344 Z M 240.226562 76.152344 "/>
<g style="fill:rgb(0%,0%,100%);fill-opacity:1;">
  <use xlink:href="#glyph0-1" x="240.226562" y="87.291016"/>
</g>
<path style="fill:none;stroke-width:1.2;stroke-linecap:butt;stroke-linejoin:miter;stroke:rgb(0%,0%,0%);stroke-opacity:1;stroke-miterlimit:10;" d="M 215.652344 89.296875 L 206.6875 117.113281 "/>
<path style="fill:none;stroke-width:1.2;stroke-linecap:butt;stroke-linejoin:miter;stroke:rgb(0%,0%,0%);stroke-opacity:1;stroke-miterlimit:10;" d="M 221.300781 94.1875 L 214.128906 116.441406 "/>
<path style="fill:none;stroke-width:1.2;stroke-linecap:butt;stroke-linejoin:miter;stroke:rgb(0%,0%,0%);stroke-opacity:1;stroke-miterlimit:10;" d="M 206.6875 117.113281 L 192.402344 120.183594 "/>
<path style="fill:none;stroke-width:1.2;stroke-linecap:butt;stroke-linejoin:miter;stroke:rgb(0%,0%,100%);stroke-opacity:1;stroke-miterlimit:10;" d="M 192.402344 120.183594 L 178.113281 123.253906 "/>
<path style="fill:none;stroke-width:1.2;stroke-linecap:butt;stroke-linejoin:miter;stroke:rgb(0%,0%,100%);stroke-opacity:1;stroke-miterlimit:10;" d="M 178.113281 123.253906 L 173.632812 137.164062 "/>
<path style="fill:none;stroke-width:1.2;stroke-linecap:butt;stroke-linejoin:miter;stroke:rgb(0%,0%,0%);stroke-opacity:1;stroke-miterlimit:10;" d="M 173.632812 137.164062 L 169.148438 151.070312 "/>
<path style="fill:none;stroke-width:1.2;stroke-linecap:butt;stroke-linejoin:miter;stroke:rgb(0%,0%,100%);stroke-opacity:1;stroke-miterlimit:10;" d="M 183.761719 128.144531 L 180.175781 139.273438 "/>
<path style="fill:none;stroke-width:1.2;stroke-linecap:butt;stroke-linejoin:miter;stroke:rgb(0%,0%,0%);stroke-opacity:1;stroke-miterlimit:10;" d="M 180.175781 139.273438 L 176.589844 150.398438 "/>
<path style=" stroke:none;fill-rule:nonzero;fill:rgb(100%,100%,100%);fill-opacity:1;" d="M 174.113281 116.253906 L 183.113281 116.253906 L 183.113281 130.253906 L 174.113281 130.253906 Z M 174.113281 116.253906 "/>
<g style="fill:rgb(0%,0%,100%);fill-opacity:1;">
  <use xlink:href="#glyph0-1" x="174.113281" y="127.392578"/>
</g>
<path style="fill:none;stroke-width:1.2;stroke-linecap:butt;stroke-linejoin:miter;stroke:rgb(0%,0%,0%);stroke-opacity:1;stroke-miterlimit:10;" d="M 169.148438 151.070312 L 188.753906 172.746094 "/>
<path style="fill:none;stroke-width:1.2;stroke-linecap:butt;stroke-linejoin:miter;stroke:rgb(0%,0%,0%);stroke-opacity:1;stroke-miterlimit:10;" d="M 169.148438 151.070312 L 140.574219 157.214844 "/>
<path style="fill:none;stroke-width:1.2;stroke-linecap:butt;stroke-linejoin:miter;stroke:rgb(0%,0%,0%);stroke-opacity:1;stroke-miterlimit:10;" d="M 185.480469 171.6875 L 181 185.597656 "/>
<path style="fill:none;stroke-width:1.2;stroke-linecap:butt;stroke-linejoin:miter;stroke:rgb(100%,0%,0%);stroke-opacity:1;stroke-miterlimit:10;" d="M 181 185.597656 L 176.515625 199.503906 "/>
<path style="fill:none;stroke-width:1.2;stroke-linecap:butt;stroke-linejoin:miter;stroke:rgb(0%,0%,0%);stroke-opacity:1;stroke-miterlimit:10;" d="M 192.027344 173.800781 L 187.542969 187.707031 "/>
<path style="fill:none;stroke-width:1.2;stroke-linecap:butt;stroke-linejoin:miter;stroke:rgb(100%,0%,0%);stroke-opacity:1;stroke-miterlimit:10;" d="M 187.542969 187.707031 L 183.058594 201.617188 "/>
<path style=" stroke:none;fill-rule:nonzero;fill:rgb(100%,100%,100%);fill-opacity:1;" d="M 169.789062 193.5625 L 179.789062 193.5625 L 179.789062 207.5625 L 169.789062 207.5625 Z M 169.789062 193.5625 "/>
<g style="fill:rgb(100%,0%,0%);fill-opacity:1;">
  <use xlink:href="#glyph0-2" x="169.789062" y="204.701172"/>
</g>
<path style="fill:none;stroke-width:1.2;stroke-linecap:butt;stroke-linejoin:miter;stroke:rgb(0%,0%,0%);stroke-opacity:1;stroke-miterlimit:10;" d="M 140.574219 157.214844 L 120.96875 135.539062 "/>
<path style="fill:none;stroke-width:1.2;stroke-linecap:butt;stroke-linejoin:miter;stroke:rgb(0%,0%,0%);stroke-opacity:1;stroke-miterlimit:10;" d="M 120.96875 135.539062 L 92.394531 141.683594 "/>
<path style="fill:none;stroke-width:1.2;stroke-linecap:butt;stroke-linejoin:miter;stroke:rgb(0%,0%,0%);stroke-opacity:1;stroke-miterlimit:10;" d="M 92.394531 141.683594 L 72.789062 120.011719 "/>
<path style="fill:none;stroke-width:1.2;stroke-linecap:butt;stroke-linejoin:miter;stroke:rgb(0%,0%,0%);stroke-opacity:1;stroke-miterlimit:10;" d="M 85.335938 144.128906 L 69.652344 126.789062 "/>
<path style="fill:none;stroke-width:1.2;stroke-linecap:butt;stroke-linejoin:miter;stroke:rgb(0%,0%,0%);stroke-opacity:1;stroke-miterlimit:10;" d="M 83.429688 169.5 L 92.394531 141.683594 "/>
<path style="fill:none;stroke-width:1.2;stroke-linecap:butt;stroke-linejoin:miter;stroke:rgb(0%,0%,0%);stroke-opacity:1;stroke-miterlimit:10;" d="M 72.789062 120.011719 L 44.214844 126.152344 "/>
<path style="fill:none;stroke-width:1.2;stroke-linecap:butt;stroke-linejoin:miter;stroke:rgb(0%,0%,0%);stroke-opacity:1;stroke-miterlimit:10;" d="M 44.214844 126.152344 L 35.25 153.96875 "/>
<path style="fill:none;stroke-width:1.2;stroke-linecap:butt;stroke-linejoin:miter;stroke:rgb(0%,0%,0%);stroke-opacity:1;stroke-miterlimit:10;" d="M 49.863281 131.042969 L 42.691406 153.296875 "/>
<path style="fill:none;stroke-width:1.2;stroke-linecap:butt;stroke-linejoin:miter;stroke:rgb(0%,0%,0%);stroke-opacity:1;stroke-miterlimit:10;" d="M 35.25 153.96875 L 54.855469 175.644531 "/>
<path style="fill:none;stroke-width:1.2;stroke-linecap:butt;stroke-linejoin:miter;stroke:rgb(0%,0%,0%);stroke-opacity:1;stroke-miterlimit:10;" d="M 54.855469 175.644531 L 83.429688 169.5 "/>
<path style="fill:none;stroke-width:1.2;stroke-linecap:butt;stroke-linejoin:miter;stroke:rgb(0%,0%,0%);stroke-opacity:1;stroke-miterlimit:10;" d="M 56.269531 168.304688 L 79.125 163.390625 "/>
</g>
</svg>

<svg xmlns="http://www.w3.org/2000/svg" xmlns:xlink="http://www.w3.org/1999/xlink" width="300pt" height="300pt" viewBox="0 0 300 300"><defs><symbol overflow="visible"><path d="M.594 2.125V-8.47h6V2.126zm.672-.672h4.671V-7.78h-4.67zm0 0"/></symbol><symbol overflow="visible" id="a"><path d="M1.172-8.75h1.594l3.89 7.313V-8.75h1.14V0H6.204L2.328-7.313V0H1.172zm0 0"/></symbol><symbol overflow="visible" id="b"><path d="M4.734-7.953c-.867 0-1.554.324-2.062.97-.5.635-.75 1.51-.75 2.624 0 1.094.25 1.965.75 2.61.508.637 1.195.953 2.062.953.852 0 1.532-.316 2.032-.953.507-.645.765-1.516.765-2.61 0-1.113-.257-1.988-.764-2.624-.5-.645-1.18-.97-2.032-.97zm0-.953c1.22 0 2.192.414 2.922 1.234.74.824 1.11 1.93 1.11 3.313 0 1.376-.37 2.477-1.11 3.298C6.926-.24 5.953.17 4.734.17c-1.23 0-2.214-.41-2.953-1.234C1.04-1.882.673-2.984.673-4.36c0-1.382.367-2.488 1.11-3.312.738-.82 1.722-1.234 2.952-1.234zm0 0"/></symbol></defs><g><path fill="#fff" d="M0 0h300v300H0z"/><path d="M243.078 216.848l21.672-19.606M236.934 188.273l6.144 28.575M264.75 197.242l-27.816-8.97M236.934 188.273l-9.805-10.835" stroke-width="1.2" stroke="#000" stroke-miterlimit="10" fill="none"/><path d="M227.13 177.438l-9.802-10.836M217.328 166.602l4.48-13.91" stroke-width="1.2" stroke="#00f" stroke-miterlimit="10" fill="none"/><path d="M221.81 152.69l4.483-13.905M188.754 172.746l14.285-3.074" stroke-width="1.2" stroke="#000" stroke-miterlimit="10" fill="none"/><path d="M203.04 169.672l14.288-3.07" stroke-width="1.2" stroke="#00f" stroke-miterlimit="10" fill="none"/><path d="M213.328 159.602h9v14h-9zm0 0" fill="#fff"/><use xlink:href="#a" x="213.328" y="170.74" fill="#00f"/><path d="M226.293 138.785l14.29-3.07" stroke-width="1.2" stroke="#000" stroke-miterlimit="10" fill="none"/><path d="M240.582 135.715l14.285-3.074" stroke-width="1.2" stroke="#00f" stroke-miterlimit="10" fill="none"/><path d="M227.707 131.45l11.43-2.458" stroke-width="1.2" stroke="#000" stroke-miterlimit="10" fill="none"/><path d="M239.137 128.992l11.425-2.457" stroke-width="1.2" stroke="#00f" stroke-miterlimit="10" fill="none"/><path d="M206.688 117.113l19.605 21.672" stroke-width="1.2" stroke="#000" stroke-miterlimit="10" fill="none"/><path d="M254.867 132.64l4.485-13.906" stroke-width="1.2" stroke="#00f" stroke-miterlimit="10" fill="none"/><path d="M259.352 118.734l4.48-13.91" stroke-width="1.2" stroke="#000" stroke-miterlimit="10" fill="none"/><path d="M250.867 125.64h9v14h-9zm0 0" fill="#fff"/><use xlink:href="#a" x="250.867" y="136.779" fill="#00f"/><path d="M263.832 104.824l-9.8-10.836" stroke-width="1.2" stroke="#000" stroke-miterlimit="10" fill="none"/><path d="M254.03 93.988l-9.803-10.836" stroke-width="1.2" stroke="#00f" stroke-miterlimit="10" fill="none"/><path d="M256.773 107.273l-7.843-8.67" stroke-width="1.2" stroke="#000" stroke-miterlimit="10" fill="none"/><path d="M248.93 98.602l-7.844-8.668M244.227 83.152l-14.286 3.07" stroke-width="1.2" stroke="#00f" stroke-miterlimit="10" fill="none"/><path d="M229.94 86.223l-14.288 3.074" stroke-width="1.2" stroke="#000" stroke-miterlimit="10" fill="none"/><path d="M240.227 76.152h9v14h-9zm0 0" fill="#fff"/><use xlink:href="#a" x="240.227" y="87.291" fill="#00f"/><path d="M215.652 89.297l-8.964 27.816M221.3 94.188l-7.17 22.253M206.688 117.113l-14.286 3.07" stroke-width="1.2" stroke="#000" stroke-miterlimit="10" fill="none"/><path d="M192.402 120.184l-14.29 3.07M178.113 123.254l-4.48 13.91" stroke-width="1.2" stroke="#00f" stroke-miterlimit="10" fill="none"/><path d="M173.633 137.164l-4.485 13.906" stroke-width="1.2" stroke="#000" stroke-miterlimit="10" fill="none"/><path d="M183.762 128.145l-3.586 11.128" stroke-width="1.2" stroke="#00f" stroke-miterlimit="10" fill="none"/><path d="M180.176 139.273l-3.586 11.125" stroke-width="1.2" stroke="#000" stroke-miterlimit="10" fill="none"/><path d="M174.113 116.254h9v14h-9zm0 0" fill="#fff"/><use xlink:href="#a" x="174.113" y="127.393" fill="#00f"/><path d="M169.148 151.07l19.606 21.676M169.148 151.07l-28.574 6.145M185.48 171.688l-4.48 13.91" stroke-width="1.2" stroke="#000" stroke-miterlimit="10" fill="none"/><path d="M181 185.598l-4.484 13.906" stroke-width="1.2" stroke="#f00" stroke-miterlimit="10" fill="none"/><path d="M192.027 173.8l-4.484 13.907" stroke-width="1.2" stroke="#000" stroke-miterlimit="10" fill="none"/><path d="M187.543 187.707l-4.484 13.91" stroke-width="1.2" stroke="#f00" stroke-miterlimit="10" fill="none"/><path d="M169.79 193.563h10v14h-10zm0 0" fill="#fff"/><use xlink:href="#b" x="169.789" y="204.701" fill="#f00"/><path d="M140.574 157.215L120.97 135.54M120.97 135.54l-28.575 6.144M92.395 141.684L72.79 120.012M85.336 144.13l-15.684-17.34M83.43 169.5l8.965-27.816M72.79 120.012l-28.575 6.14M44.215 126.152L35.25 153.97M49.863 131.043l-7.172 22.254M35.25 153.97l19.605 21.675M54.855 175.645L83.43 169.5M56.27 168.305l22.855-4.914" stroke-width="1.2" stroke="#000" stroke-miterlimit="10" fill="none"/></g></svg>
